X:1
T:Gunnar Gladstads Reinlendar
R:Schottis
Z:Christian Fürst, 2009-01-28
O:Norge
N:Här finns fler låtar från [[!Norge]].
S:Ånon Egeland och Per Midtstigen från skivan "Norske strøk" (1982)
M:2/4
L:1/8
K:D
|:D>F A>F|G>A B>G|A>c d>e|f2d2| e>f g>f|a>g e>c|[1 A>A B>G|A>F D2:|[2 A>c e>c|d4|]!
|:A>c e>c|d2f2|A>c e>c|d2f2|A>c e>f|g2f2|e>d c>B|A>G F>E|!
D>F A>F|G>A B>G|A>c d>e|f2d2|e>f g>f|a>g e>c|A>c e>c|d4:|

